img/menu_icon3.svg

<svg width="20" height="16" viewBox="0 0 20 16" fill="none" xmlns="http://www.w3.org/2000/svg">
<path d="M19.5 7H19V5C19 4.46875 18.5312 4 18 4H15.6875L13.0938 0.78125C12.7188 0.3125 12.1562 0.03125 11.5312 0H8C7.4375 0 7 0.46875 7 1V4H1.5C1.21875 4 1 4.25 1 4.5V7H0.5C0.21875 7 0 7.25 0 7.5V8.5C0 8.78125 0.21875 9 0.5 9H1C1.90625 7.8125 3.34375 7 5 7C6.625 7 8.0625 7.8125 8.96875 9H11C11.9062 7.8125 13.3438 7 15 7C16.625 7 18.0625 7.8125 18.9688 9H19.5C19.75 9 20 8.78125 20 8.5V7.5C20 7.25 19.75 7 19.5 7ZM9 4V2H11.5312L13.125 4H9ZM18.5 11H18.3125C18.25 10.7812 18.1562 10.5625 18.0625 10.375L18.1562 10.25C18.375 10.0625 18.375 9.75 18.1562 9.53125L17.4688 8.84375C17.25 8.625 16.9375 8.625 16.75 8.84375L16.625 8.9375C16.4375 8.84375 16.2188 8.75 16 8.6875V8.5C16 8.25 15.75 8 15.5 8H14.5C14.2188 8 14 8.25 14 8.5V8.6875C13.75 8.75 13.5312 8.84375 13.3438 8.9375L13.2188 8.84375C13.0312 8.625 12.7188 8.625 12.5 8.84375L11.8125 9.53125C11.5938 9.75 11.5938 10.0625 11.8125 10.25L11.9062 10.375C11.8125 10.5625 11.7188 10.7812 11.6562 11H11.5C11.2188 11 11 11.25 11 11.5V12.5C11 12.7812 11.2188 13 11.5 13H11.6562C11.7188 13.25 11.8125 13.4688 11.9062 13.6562L11.8125 13.7812C11.5938 13.9688 11.5938 14.2812 11.8125 14.5L12.5 15.1875C12.7188 15.4062 13.0312 15.4062 13.2188 15.1875L13.3438 15.0938C13.5312 15.1875 13.75 15.2812 14 15.3438V15.5C14 15.7812 14.2188 16 14.5 16H15.5C15.75 16 16 15.7812 16 15.5V15.3438C16.2188 15.2812 16.4375 15.1875 16.625 15.0938L16.75 15.1875C16.9375 15.4062 17.25 15.4062 17.4688 15.1875L18.1562 14.5C18.375 14.2812 18.375 13.9688 18.1562 13.7812L18.0625 13.6562C18.1562 13.4688 18.25 13.25 18.3125 13H18.5C18.75 13 19 12.7812 19 12.5V11.5C19 11.25 18.75 11 18.5 11ZM15 13.5C14.1562 13.5 13.5 12.8438 13.5 12C13.5 11.1875 14.1562 10.5 15 10.5C15.8125 10.5 16.5 11.1875 16.5 12C16.5 12.8438 15.8125 13.5 15 13.5ZM8.5 11H8.3125C8.25 10.7812 8.15625 10.5625 8.0625 10.375L8.15625 10.25C8.375 10.0625 8.375 9.75 8.15625 9.53125L7.46875 8.84375C7.25 8.625 6.9375 8.625 6.75 8.84375L6.625 8.9375C6.4375 8.84375 6.21875 8.75 6 8.6875V8.5C6 8.25 5.75 8 5.5 8H4.5C4.21875 8 4 8.25 4 8.5V8.6875C3.75 8.75 3.53125 8.84375 3.34375 8.9375L3.21875 8.84375C3.03125 8.625 2.71875 8.625 2.5 8.84375L1.8125 9.53125C1.59375 9.75 1.59375 10.0625 1.8125 10.25L1.90625 10.375C1.8125 10.5625 1.71875 10.7812 1.65625 11H1.5C1.21875 11 1 11.25 1 11.5V12.5C1 12.7812 1.21875 13 1.5 13H1.65625C1.71875 13.25 1.8125 13.4688 1.90625 13.6562L1.8125 13.7812C1.59375 13.9688 1.59375 14.2812 1.8125 14.5L2.5 15.1875C2.71875 15.4062 3.03125 15.4062 3.21875 15.1875L3.34375 15.0938C3.53125 15.1875 3.75 15.2812 4 15.3438V15.5C4 15.7812 4.21875 16 4.5 16H5.5C5.75 16 6 15.7812 6 15.5V15.3438C6.21875 15.2812 6.4375 15.1875 6.625 15.0938L6.75 15.1875C6.9375 15.4062 7.25 15.4062 7.46875 15.1875L8.15625 14.5C8.375 14.2812 8.375 13.9688 8.15625 13.7812L8.0625 13.6562C8.15625 13.4688 8.25 13.25 8.3125 13H8.5C8.75 13 9 12.7812 9 12.5V11.5C9 11.25 8.75 11 8.5 11ZM5 13.5C4.15625 13.5 3.5 12.8438 3.5 12C3.5 11.1875 4.15625 10.5 5 10.5C5.8125 10.5 6.5 11.1875 6.5 12C6.5 12.8438 5.8125 13.5 5 13.5Z" fill="white"/>
</svg>

<svg width="20" height="16" fill="none" xmlns="http://www.w3.org/2000/svg"><path d="M19.5 7H19V5c0-.531-.469-1-1-1h-2.313L13.095.781A2.116 2.116 0 0011.53 0H8c-.563 0-1 .469-1 1v3H1.5c-.281 0-.5.25-.5.5V7H.5c-.281 0-.5.25-.5.5v1c0 .281.219.5.5.5H1c.906-1.188 2.344-2 4-2 1.625 0 3.063.813 3.969 2H11c.906-1.188 2.344-2 4-2 1.625 0 3.063.813 3.969 2h.531c.25 0 .5-.219.5-.5v-1c0-.25-.25-.5-.5-.5zM9 4V2h2.531l1.594 2H9zm9.5 7h-.188a3.727 3.727 0 00-.25-.625l.094-.125c.219-.188.219-.5 0-.719l-.687-.687c-.219-.219-.532-.219-.719 0l-.125.094a3.723 3.723 0 00-.625-.25V8.5c0-.25-.25-.5-.5-.5h-1c-.281 0-.5.25-.5.5v.188c-.25.062-.469.156-.656.25l-.125-.094c-.188-.219-.5-.219-.719 0l-.688.687c-.218.219-.218.531 0 .719l.094.125a3.736 3.736 0 00-.25.625H11.5c-.281 0-.5.25-.5.5v1c0 .281.219.5.5.5h.156c.063.25.156.469.25.656l-.094.125c-.218.188-.218.5 0 .719l.688.688c.219.218.531.218.719 0l.125-.094c.187.094.406.187.656.25v.156c0 .281.219.5.5.5h1c.25 0 .5-.219.5-.5v-.156c.219-.063.438-.156.625-.25l.125.094c.188.218.5.218.719 0l.687-.688c.219-.219.219-.531 0-.719l-.093-.125c.093-.187.187-.406.25-.656h.187c.25 0 .5-.219.5-.5v-1c0-.25-.25-.5-.5-.5zM15 13.5a1.48 1.48 0 01-1.5-1.5 1.5 1.5 0 011.5-1.5c.813 0 1.5.688 1.5 1.5a1.5 1.5 0 01-1.5 1.5zM8.5 11h-.188a3.723 3.723 0 00-.25-.625l.094-.125c.219-.188.219-.5 0-.719l-.687-.687c-.219-.219-.532-.219-.719 0l-.125.094A3.725 3.725 0 006 8.688V8.5c0-.25-.25-.5-.5-.5h-1c-.281 0-.5.25-.5.5v.188c-.25.062-.469.156-.656.25l-.125-.094c-.188-.219-.5-.219-.719 0l-.688.687c-.218.219-.218.531 0 .719l.094.125a3.723 3.723 0 00-.25.625H1.5c-.281 0-.5.25-.5.5v1c0 .281.219.5.5.5h.156c.063.25.157.469.25.656l-.093.125c-.22.188-.22.5 0 .719l.687.688c.219.218.531.218.719 0l.125-.094c.187.094.406.187.656.25v.156c0 .281.219.5.5.5h1c.25 0 .5-.219.5-.5v-.156c.219-.063.438-.156.625-.25l.125.094c.188.218.5.218.719 0l.687-.688c.219-.219.219-.531 0-.719l-.094-.125c.094-.187.188-.406.25-.656H8.5c.25 0 .5-.219.5-.5v-1c0-.25-.25-.5-.5-.5zM5 13.5A1.48 1.48 0 013.5 12 1.5 1.5 0 015 10.5c.813 0 1.5.688 1.5 1.5A1.5 1.5 0 015 13.5z" fill="#fff"/></svg>
